packages/swarm-icons/src/icons/solid/Duplicate.svg

<svg xmlns="http://www.w3.org/2000/svg" width="18" height="18" viewBox="0 0 18 18">
  <path fill="#A2A2A2" d="M13,14 C13,15.1045695 12.1045695,16 11,16 L4,16 C2.8954305,16 2,15.1045695 2,14 L2,7 C2,5.8954305 2.8954305,5 4,5 L4,11 C4,12.6568542 5.34314575,14 7,14 L13,14 Z M7,2 L14,2 C15.1045695,2 16,2.8954305 16,4 L16,11 C16,12.1045695 15.1045695,13 14,13 L7,13 C5.8954305,13 5,12.1045695 5,11 L5,4 C5,2.8954305 5.8954305,2 7,2 Z"/>
</svg>

<svg xmlns="http://www.w3.org/2000/svg" width="18" height="18"><path fill="#A2A2A2" d="M13 14a2 2 0 01-2 2H4a2 2 0 01-2-2V7a2 2 0 012-2v6a3 3 0 003 3h6zM7 2h7a2 2 0 012 2v7a2 2 0 01-2 2H7a2 2 0 01-2-2V4a2 2 0 012-2z"/></svg>
